components/Common/Svg/svgs/code.svg

<svg width="40" height="40" viewBox="0 0 40 40" fill="none" xmlns="http://www.w3.org/2000/svg">
<path fill-rule="evenodd" clip-rule="evenodd" d="M24.3033 6.90921C24.4373 6.37342 24.1115 5.83049 23.5757 5.69654C23.0399 5.56259 22.497 5.88835 22.363 6.42414L15.6964 33.0908C15.5624 33.6266 15.8882 34.1695 16.424 34.3035C16.9598 34.4374 17.5027 34.1117 17.6366 33.5759L24.3033 6.90921ZM12.3738 12.6262C12.7643 13.0168 12.7643 13.6499 12.3738 14.0404L6.41421 20L12.3738 25.9596C12.7643 26.3501 12.7643 26.9832 12.3738 27.3738C11.9832 27.7643 11.3501 27.7643 10.9596 27.3738L4.29289 20.7071C4.10536 20.5196 4 20.2652 4 20C4 19.7348 4.10536 19.4804 4.29289 19.2929L10.9596 12.6262C11.3501 12.2357 11.9832 12.2357 12.3738 12.6262ZM27.6264 12.6262C28.0169 12.2357 28.6501 12.2357 29.0406 12.6262L35.7073 19.2929C35.8948 19.4804 36.0002 19.7348 36.0002 20C36.0002 20.2652 35.8948 20.5196 35.7073 20.7071L29.0406 27.3738C28.6501 27.7643 28.0169 27.7643 27.6264 27.3738C27.2359 26.9832 27.2359 26.3501 27.6264 25.9596L33.5859 20L27.6264 14.0404C27.2359 13.6499 27.2359 13.0168 27.6264 12.6262Z" fill="#161616"/>
</svg>

<svg width="40" height="40" viewBox="0 0 40 40" fill="none" xmlns="http://www.w3.org/2000/svg"><path fill-rule="evenodd" clip-rule="evenodd" d="M24.303 6.91a1 1 0 1 0-1.94-.486l-6.667 26.667a1 1 0 1 0 1.94.485l6.667-26.667Zm-11.93 5.716a1 1 0 0 1 0 1.414L6.415 20l5.96 5.96a1 1 0 0 1-1.414 1.414l-6.667-6.667a1 1 0 0 1 0-1.414l6.667-6.667a1 1 0 0 1 1.414 0Zm15.253 0a1 1 0 0 1 1.415 0l6.666 6.667a1 1 0 0 1 0 1.414l-6.666 6.667a1 1 0 0 1-1.415-1.414l5.96-5.96-5.96-5.96a1 1 0 0 1 0-1.414Z" fill="#161616"/></svg>
